SVG-Logos/Security/boostsecurity.svg

<svg width="185" height="80" viewBox="0 0 185 80" fill="none" xmlns="http://www.w3.org/2000/svg">
<path d="M0.318359 73.82L1.66159 71.6789C2.2233 72.0439 2.7606 72.3601 3.22462 72.5791C3.71309 72.7981 4.12825 72.9198 4.4946 72.9198C4.78767 72.9198 5.00747 72.8467 5.20285 72.7251C5.37381 72.6034 5.4715 72.4332 5.4715 72.2142C5.4715 71.9222 5.30054 71.6789 4.98305 71.4842C4.64113 71.2895 4.2748 71.1193 3.83519 70.949C3.37117 70.7543 2.90714 70.5353 2.44311 70.292C1.97909 70.0488 1.58833 69.7324 1.27084 69.3675C0.953344 68.9782 0.806808 68.4916 0.806808 67.8833C0.806808 67.056 1.14872 66.3504 1.80813 65.8152C2.46753 65.2798 3.42002 65.0122 4.61672 65.0122C5.20285 65.0122 5.83783 65.0851 6.49724 65.2312C7.15664 65.3772 7.74278 65.6205 8.3045 65.9368L7.05895 68.1022C6.76588 67.9076 6.39955 67.7372 5.93552 67.5913C5.4715 67.4453 5.08074 67.3724 4.76324 67.3724C4.56786 67.3724 4.37249 67.421 4.15268 67.4939C3.93288 67.567 3.81078 67.7129 3.81078 67.9319C3.81078 68.1752 3.9573 68.3699 4.2748 68.5402C4.59229 68.6862 4.9342 68.8564 5.37381 69.0268C5.83783 69.1971 6.30186 69.4161 6.79031 69.6594C7.27876 69.9027 7.66952 70.2191 8.01144 70.6083C8.35334 70.9976 8.49988 71.533 8.49988 72.1655C8.49988 72.7981 8.32891 73.3578 7.96258 73.82C7.59625 74.2823 7.13222 74.6473 6.54608 74.8906C5.95994 75.1339 5.30054 75.2555 4.56786 75.2555C3.88404 75.2555 3.17579 75.1339 2.44311 74.8906C1.71045 74.6473 0.977765 74.3066 0.318359 73.82Z" fill="#58A1F9"/>
<path d="M20.9551 70.9977C21.126 71.5329 21.468 71.9952 21.932 72.3359C22.4204 72.6766 22.9577 72.8468 23.6171 72.8468C24.301 72.8468 24.8627 72.7252 25.3268 72.5062C25.7664 72.2872 26.1815 71.9951 26.5478 71.6546L28.2818 73.6984C27.5247 74.3067 26.7676 74.696 26.0105 74.9393C25.2534 75.1826 24.5452 75.2799 23.8614 75.2799C22.7623 75.2799 21.8099 75.0609 20.9551 74.6229C20.1247 74.185 19.4653 73.5768 18.9769 72.7981C18.5128 72.0196 18.2686 71.1437 18.2686 70.1461C18.2686 69.1729 18.4884 68.297 18.9524 67.5183C19.4165 66.7641 20.027 66.1558 20.8085 65.6935C21.5901 65.2555 22.4938 65.0366 23.495 65.0366C24.4963 65.0366 25.3755 65.2555 26.1571 65.6935C26.9386 66.1315 27.5491 66.7398 27.9887 67.5183C28.4283 68.297 28.6726 69.1729 28.6726 70.1704V71.022H20.9551V70.9977ZM25.7419 69.4162C25.5953 68.8322 25.3268 68.3699 24.8872 68.005C24.4476 67.64 23.9346 67.4697 23.3485 67.4697C22.7379 67.4697 22.225 67.64 21.761 68.005C21.3214 68.3699 21.0283 68.8322 20.8818 69.3919H25.7419V69.4162Z" fill="#58A1F9"/>
<path d="M47.7708 73.8201C47.2823 74.2823 46.7206 74.6472 46.0368 74.8905C45.3774 75.1583 44.6446 75.2798 43.8632 75.2798C42.813 75.2798 41.885 75.0609 41.0545 74.6229C40.2242 74.1849 39.5893 73.5768 39.1008 72.7981C38.6368 72.0196 38.3926 71.1437 38.3926 70.1703C38.3926 69.1972 38.6368 68.2969 39.1008 67.5426C39.5648 66.7884 40.2242 66.1558 41.0545 65.7178C41.885 65.2798 42.813 65.0609 43.8632 65.0609C44.6446 65.0609 45.3774 65.1826 46.0368 65.4502C46.6963 65.7178 47.2823 66.0585 47.7708 66.5208L45.7681 68.3942C45.3041 67.8103 44.6691 67.5183 43.8632 67.5183C43.1305 67.5183 42.5444 67.7616 42.0559 68.2726C41.5918 68.7835 41.3477 69.4161 41.3477 70.1703C41.3477 70.9247 41.5918 71.5572 42.0559 72.0682C42.52 72.5791 43.1305 72.8224 43.8632 72.8224C44.6446 72.8224 45.2798 72.5305 45.7681 71.9465L47.7708 73.8201Z" fill="#58A1F9"/>
<path d="M58.0054 65.231H60.8628V70.5109C60.8628 71.2409 61.0094 71.8248 61.3269 72.2141C61.6444 72.6034 62.084 72.8224 62.6702 72.8224C63.2807 72.8224 63.7935 72.6034 64.1844 72.1655C64.5751 71.7275 64.7704 71.1678 64.7704 70.5109V65.2067H67.6279V75.0608H65.1368L65.0147 73.8442C64.624 74.2822 64.1599 74.6472 63.6226 74.8905C63.0853 75.1338 62.4991 75.2555 61.8397 75.2555C60.5943 75.2555 59.6417 74.8419 58.9823 74.0389C58.3473 73.2361 58.0054 72.0437 58.0054 70.4623V65.231Z" fill="#58A1F9"/>
<path d="M78.7144 75.0608V65.2069H81.2054L81.352 66.618C82.0603 65.5474 83.0615 65.0122 84.3316 65.0122C84.7712 65.0122 85.2108 65.0851 85.6504 65.2069L85.2596 67.6643C84.8689 67.5427 84.5025 67.4696 84.1361 67.4696C83.379 67.4696 82.7441 67.7615 82.2802 68.3212C81.8161 68.8809 81.5718 69.6837 81.5718 70.73V75.0853H78.7144V75.0608Z" fill="#58A1F9"/>
<path d="M94.9558 61.8493C94.9558 61.387 95.1024 60.9976 95.3954 60.7057C95.6884 60.4136 96.0793 60.2678 96.5432 60.2678C97.0073 60.2678 97.3981 60.4136 97.6911 60.7057C97.9842 60.9976 98.1308 61.387 98.1308 61.8493C98.1308 62.3115 97.9842 62.7007 97.6911 62.9928C97.3981 63.2847 97.0073 63.4307 96.5432 63.4307C96.0793 63.4307 95.6884 63.2847 95.3954 62.9928C95.1024 62.7007 94.9558 62.3358 94.9558 61.8493ZM95.1024 75.0609V65.2069H97.9597V75.0609H95.1024Z" fill="#58A1F9"/>
<path d="M108.316 65.2069H109.952V62.7495H112.809V65.2069H115.203V67.6643H112.809V71.2896C112.809 71.752 112.956 72.1169 113.249 72.3845C113.542 72.6523 113.933 72.7738 114.397 72.7738C114.739 72.7738 115.081 72.7009 115.447 72.5548V74.8907C114.812 75.134 114.201 75.2555 113.591 75.2555C112.419 75.2555 111.515 74.9393 110.88 74.3067C110.245 73.6741 109.928 72.7738 109.928 71.606V67.64H108.291V65.2069H108.316Z" fill="#58A1F9"/>
<path d="M128.146 65.2067L130.466 70.0243C130.564 70.2433 130.662 70.4866 130.759 70.7542C130.857 71.0219 130.93 71.3139 131.004 71.6301L133.666 65.2067H136.67L130.515 80H127.511L129.758 74.5743L125.167 65.2067H128.146Z" fill="#58A1F9"/>
<path d="M145.9 73.6984C145.9 73.2361 146.046 72.8468 146.34 72.5548C146.633 72.2629 147.023 72.1169 147.487 72.1169C147.952 72.1169 148.342 72.2629 148.635 72.5548C148.928 72.8468 149.075 73.2361 149.075 73.6984C149.075 74.1606 148.928 74.55 148.635 74.8419C148.342 75.1338 147.952 75.2799 147.487 75.2799C147.023 75.2799 146.633 75.1338 146.34 74.8419C146.046 74.55 145.9 74.1606 145.9 73.6984Z" fill="#58A1F9"/>
<path d="M159.87 61.8493C159.87 61.387 160.016 60.9976 160.309 60.7057C160.602 60.4136 160.992 60.2678 161.456 60.2678C161.921 60.2678 162.311 60.4136 162.604 60.7057C162.897 60.9976 163.045 61.387 163.045 61.8493C163.045 62.3115 162.897 62.7007 162.604 62.9928C162.311 63.2847 161.921 63.4307 161.456 63.4307C160.992 63.4307 160.602 63.2847 160.309 62.9928C160.016 62.7007 159.87 62.3358 159.87 61.8493ZM160.016 75.0609V65.2069H162.874V75.0609H160.016Z" fill="#58A1F9"/>
<path d="M173.132 70.1461C173.132 69.1486 173.351 68.2726 173.815 67.5183C174.279 66.7398 174.889 66.1315 175.695 65.6935C176.501 65.2555 177.406 65.0366 178.406 65.0366C179.433 65.0366 180.336 65.2555 181.118 65.6935C181.899 66.1315 182.534 66.7398 182.998 67.5183C183.462 68.297 183.682 69.1729 183.682 70.1461C183.682 71.1192 183.462 72.0196 182.998 72.7738C182.534 73.5523 181.924 74.1606 181.118 74.5986C180.336 75.0366 179.433 75.2555 178.406 75.2555C177.381 75.2555 176.478 75.0366 175.695 74.5986C174.889 74.1606 174.279 73.5523 173.815 72.7738C173.351 71.9951 173.132 71.1192 173.132 70.1461ZM175.891 70.1461C175.891 70.9004 176.136 71.5329 176.6 72.0439C177.064 72.5548 177.674 72.7981 178.406 72.7981C179.14 72.7981 179.726 72.5548 180.214 72.0439C180.678 71.5329 180.922 70.9004 180.922 70.1461C180.922 69.3919 180.678 68.7592 180.214 68.2483C179.75 67.7373 179.14 67.494 178.406 67.494C177.674 67.494 177.087 67.7373 176.6 68.2483C176.136 68.7349 175.891 69.3675 175.891 70.1461Z" fill="#58A1F9"/>
<path d="M18.439 12.0438C13.8231 12.0438 9.57359 13.747 6.34984 16.5694V3.16301C6.34984 1.41119 4.93334 0 3.17491 0C1.4165 0 0 1.41119 0 3.16301V30.4136C0 40.5352 8.2792 48.7835 18.439 48.7835C28.5986 48.7835 36.8779 40.5352 36.8779 30.4136C36.8779 20.2919 28.5986 12.0438 18.439 12.0438ZM18.439 42.4574C11.7716 42.4574 6.34984 37.056 6.34984 30.4136C6.34984 23.7713 11.7716 18.3699 18.439 18.3699C25.1062 18.3699 30.528 23.7713 30.528 30.4136C30.528 37.056 25.1062 42.4574 18.439 42.4574Z" fill="#58A1F9"/>
<path d="M148.855 29.3186C145.681 28.0047 142.554 27.3478 142.408 27.3235C142.383 27.3235 139.99 26.8126 137.499 25.8394C133.665 24.3065 133.225 23.1142 133.225 23.1142C133.225 21.8491 134.837 20.3406 137.157 19.4647C140.918 18.0292 146.853 18.0292 151.127 22.798C152.299 24.0876 154.302 24.2091 155.596 23.0413C156.891 21.8734 157.012 19.8783 155.84 18.5887C153.032 15.4744 149.417 13.4306 145.363 12.6763C141.871 12.0194 138.158 12.3357 134.886 13.5766C129.953 15.4744 126.875 19.1239 126.875 23.1387C126.875 26.5693 129.513 29.3917 134.69 31.5327C137.865 32.8466 140.991 33.5036 141.138 33.5279C141.162 33.5279 143.556 34.0389 146.047 35.0121C149.881 36.5207 150.321 37.7371 150.345 37.7371C150.345 39.0024 148.733 40.5109 146.413 41.3868C142.652 42.8223 136.717 42.8223 132.444 38.0535C131.271 36.7639 129.269 36.6422 127.974 37.8102C126.68 38.9781 126.558 40.9732 127.73 42.2628C130.539 45.3771 134.153 47.4209 138.207 48.1751C139.404 48.3941 140.601 48.5158 141.822 48.5158C144.166 48.5158 146.535 48.1021 148.684 47.2748C153.618 45.3771 156.695 41.7274 156.695 37.7128C156.671 34.2822 154.033 31.4598 148.855 29.3186Z" fill="#58A1F9"/>
<path d="M181.825 42.5791C178.21 42.5791 174.497 40.6569 174.497 37.4696C174.497 34.5986 174.449 26.253 174.377 18.4915H178.893C180.652 18.4915 182.068 17.0803 182.068 15.3285C182.068 13.5766 180.652 12.1654 178.893 12.1654H174.326C174.278 7.05597 174.254 3.23602 174.254 3.13868C174.229 1.41119 172.814 0 171.08 0H171.054C169.295 0.0243308 167.905 1.43552 167.905 3.18734C167.905 3.28467 167.928 7.10463 167.977 12.1654H165.95C164.192 12.1654 162.775 13.5766 162.775 15.3285C162.775 17.0803 164.192 18.4915 165.95 18.4915H168.025C168.076 26.253 168.148 34.6229 168.148 37.4696C168.148 40.8759 169.759 43.9416 172.666 46.0584C175.157 47.8831 178.406 48.8808 181.8 48.8808C183.559 48.8808 184.975 47.4696 184.975 45.7178C184.975 43.966 183.559 42.5791 181.825 42.5791Z" fill="#58A1F9"/>
<path d="M67.6256 38.8321L67.5036 38.9294C65.2079 41.2896 62.1306 42.579 58.8335 42.579C58.3696 42.579 57.9055 42.5547 57.4659 42.506L57.9055 45.8637L55.2434 48.5644C56.4158 48.7834 57.6125 48.9294 58.8335 48.9294C63.8156 48.9294 68.4805 46.9829 71.9972 43.4306L78.6401 37.2506L74.3174 32.6277L67.6256 38.8321Z" fill="#58A1F9"/>
<path d="M56.4897 42.3357C50.9459 41.2408 46.7696 36.3503 46.7696 30.5109C46.7696 28.2239 47.4045 26.0827 48.528 24.2579L45.1577 23.6253L43.4725 20.438C41.5432 23.3334 40.4197 26.8126 40.4197 30.5352C40.4197 39.0512 46.2567 46.2044 54.1451 48.2968L56.9049 45.4989L56.4897 42.3357Z" fill="#58A1F9"/>
<path d="M49.113 23.4064C51.3111 20.4136 54.8523 18.4914 58.8577 18.4914C62.2035 18.4914 65.3296 19.8296 67.6497 22.2627L67.723 22.3358L70.1163 24.55L71.1177 21.0706L74.2926 19.8053L72.1678 17.8345C68.6511 14.1849 63.9375 12.1655 58.8577 12.1655C52.8253 12.1655 47.4767 15.0609 44.1064 19.5377L45.7917 22.7981L49.113 23.4064Z" fill="#58A1F9"/>
<path d="M79.0325 32.8466L88.5572 41.7031L89.5098 38.4671L92.9289 37.1045L83.3553 28.2237L75.076 20.5352L71.9011 21.776L70.8999 25.2797L79.0325 32.8466Z" fill="#58A1F9"/>
<path d="M94.6372 22.3845L94.7838 22.2384C97.104 19.8053 100.206 18.4671 103.576 18.4671C105.163 18.4671 106.702 18.7835 108.094 19.3431L110.487 16.9343L109.999 13.3334C107.996 12.5791 105.823 12.1655 103.551 12.1655C98.4716 12.1655 93.758 14.1849 90.2413 17.8345L84.5508 23.1143L88.8735 27.7372L94.6372 22.3845Z" fill="#58A1F9"/>
<path d="M111.026 13.7469L111.49 17.275L108.999 19.781C112.931 21.7762 115.641 25.8394 115.641 30.5352C115.641 33.4549 114.591 36.1558 112.833 38.2239L114.494 41.4111L117.888 42.0438C120.453 38.8808 121.991 34.8905 121.991 30.5352C121.991 23.0657 117.473 16.6181 111.026 13.7469Z" fill="#58A1F9"/>
<path d="M112.148 39.0024C109.949 41.2165 106.921 42.579 103.551 42.579C100.254 42.579 97.1766 41.2896 94.8809 38.9294L94.832 38.8808L93.733 37.8588L90.3139 39.2213L89.3613 42.4574L90.3871 43.4063C93.8796 46.9586 98.5442 48.9051 103.551 48.9051C108.924 48.9051 113.784 46.5936 117.154 42.9197L113.857 42.3114L112.148 39.0024Z" fill="#58A1F9"/>
</svg>

<svg xmlns="http://www.w3.org/2000/svg" fill="none" viewBox="0 0 185 80"><path fill="#58A1F9" d="m.318 73.82 1.344-2.141a13.9 13.9 0 0 0 1.563.9c.488.22.903.34 1.27.34.293 0 .512-.072.708-.194a.602.602 0 0 0 .268-.51c0-.293-.17-.536-.488-.73a8.428 8.428 0 0 0-1.148-.536 17.98 17.98 0 0 1-1.392-.657 4.021 4.021 0 0 1-1.172-.924c-.318-.39-.464-.876-.464-1.485 0-.827.342-1.533 1.001-2.068.66-.535 1.612-.803 2.809-.803.586 0 1.22.073 1.88.22.66.145 1.246.389 1.808.705l-1.246 2.165a4.403 4.403 0 0 0-1.123-.51c-.465-.147-.855-.22-1.173-.22-.195 0-.39.049-.61.122-.22.073-.342.219-.342.438 0 .243.146.438.464.608.317.146.66.316 1.099.487.464.17.928.39 1.416.632.489.244.88.56 1.221.95.342.389.489.924.489 1.556 0 .633-.171 1.193-.537 1.655-.367.462-.83.827-1.417 1.07-.586.244-1.245.365-1.978.365a6.729 6.729 0 0 1-2.125-.364C1.71 74.647.978 74.307.318 73.82ZM20.955 70.998c.171.535.513.997.977 1.338.488.34 1.026.51 1.685.51.684 0 1.246-.12 1.71-.34.44-.219.854-.51 1.22-.851l1.735 2.043a7.013 7.013 0 0 1-2.271 1.241 6.93 6.93 0 0 1-2.15.34c-1.099 0-2.051-.218-2.906-.656a5.095 5.095 0 0 1-1.978-1.825c-.464-.778-.708-1.654-.708-2.652 0-.973.22-1.849.683-2.628a5.324 5.324 0 0 1 1.856-1.825c.782-.438 1.686-.656 2.687-.656s1.88.218 2.662.656a4.708 4.708 0 0 1 1.832 1.825c.44.779.684 1.655.684 2.652v.852h-7.718v-.024Zm4.787-1.582c-.147-.584-.415-1.046-.855-1.411s-.952-.535-1.538-.535c-.611 0-1.124.17-1.588.535a2.62 2.62 0 0 0-.88 1.387h4.86v.024ZM47.77 73.82a4.844 4.844 0 0 1-1.733 1.07c-.66.268-1.392.39-2.174.39-1.05 0-1.978-.22-2.809-.657a5.03 5.03 0 0 1-1.953-1.825 5.042 5.042 0 0 1-.708-2.628c0-.973.244-1.873.708-2.627a5.04 5.04 0 0 1 1.953-1.825c.831-.438 1.759-.657 2.81-.657.78 0 1.513.122 2.173.39.66.267 1.245.608 1.734 1.07l-2.003 1.873c-.464-.584-1.099-.876-1.905-.876-.733 0-1.319.244-1.807.755-.464.51-.708 1.143-.708 1.897 0 .755.244 1.387.708 1.898.464.511 1.075.754 1.807.754.782 0 1.417-.291 1.905-.876l2.003 1.874ZM58.005 65.231h2.858v5.28c0 .73.146 1.314.464 1.703.317.39.757.608 1.343.608.61 0 1.123-.219 1.514-.657.391-.438.586-.997.586-1.654v-5.304h2.858v9.854h-2.491l-.122-1.217c-.391.438-.855.803-1.392 1.047a4.246 4.246 0 0 1-1.783.364c-1.246 0-2.198-.413-2.858-1.216-.635-.803-.977-1.995-.977-3.577v-5.231ZM78.714 75.06v-9.853h2.491l.147 1.411c.708-1.07 1.71-1.606 2.98-1.606.44 0 .879.073 1.318.195l-.39 2.457a3.765 3.765 0 0 0-1.124-.194c-.757 0-1.392.291-1.856.851-.464.56-.708 1.363-.708 2.409v4.355h-2.858v-.024ZM94.956 61.85c0-.463.146-.852.44-1.144.292-.292.683-.438 1.147-.438.464 0 .855.146 1.148.438.293.292.44.681.44 1.143 0 .463-.147.852-.44 1.144-.293.292-.684.438-1.148.438-.464 0-.855-.146-1.148-.438-.293-.292-.44-.657-.44-1.144Zm.146 13.21v-9.853h2.858v9.854h-2.858ZM108.316 65.207h1.636V62.75h2.857v2.457h2.394v2.457h-2.394v3.626c0 .462.147.827.44 1.094.293.268.684.39 1.148.39.342 0 .684-.073 1.05-.22v2.337a5.138 5.138 0 0 1-1.856.364c-1.172 0-2.076-.316-2.711-.948-.635-.633-.952-1.533-.952-2.701V67.64h-1.637v-2.433h.025ZM128.146 65.207l2.32 4.817a7.62 7.62 0 0 1 .538 1.606l2.662-6.423h3.004L130.515 80h-3.004l2.247-5.426-4.591-9.367h2.979ZM145.9 73.698c0-.462.146-.851.44-1.143.293-.292.683-.438 1.147-.438.465 0 .855.146 1.148.438.293.292.44.681.44 1.143 0 .463-.147.852-.44 1.144-.293.292-.683.438-1.148.438-.464 0-.854-.146-1.147-.438-.294-.292-.44-.681-.44-1.144ZM159.87 61.85c0-.463.146-.852.439-1.144.293-.292.683-.438 1.147-.438.465 0 .855.146 1.148.438.293.292.441.681.441 1.143 0 .463-.148.852-.441 1.144-.293.292-.683.438-1.148.438-.464 0-.854-.146-1.147-.438-.293-.292-.439-.657-.439-1.144Zm.146 13.21v-9.853h2.858v9.854h-2.858ZM173.132 70.146c0-.997.219-1.873.683-2.628a4.832 4.832 0 0 1 1.88-1.825c.806-.438 1.711-.656 2.711-.656 1.027 0 1.93.218 2.712.656a5.007 5.007 0 0 1 1.88 1.825c.464.779.684 1.655.684 2.628 0 .973-.22 1.874-.684 2.628a4.832 4.832 0 0 1-1.88 1.825c-.782.438-1.685.656-2.712.656-1.025 0-1.928-.218-2.711-.656a4.832 4.832 0 0 1-1.88-1.825c-.464-.779-.683-1.655-.683-2.628Zm2.759 0c0 .754.245 1.387.709 1.898.464.51 1.074.754 1.806.754.734 0 1.32-.243 1.808-.754.464-.511.708-1.144.708-1.898s-.244-1.387-.708-1.898c-.464-.51-1.074-.754-1.808-.754-.732 0-1.319.243-1.806.754-.464.487-.709 1.12-.709 1.898ZM18.439 12.044a18.32 18.32 0 0 0-12.09 4.525V3.163A3.163 3.163 0 0 0 3.176 0 3.163 3.163 0 0 0 0 3.163v27.25c0 10.122 8.28 18.37 18.439 18.37 10.16 0 18.439-8.248 18.439-18.37 0-10.121-8.28-18.37-18.439-18.37Zm0 30.413c-6.667 0-12.09-5.401-12.09-12.043 0-6.643 5.423-12.044 12.09-12.044s12.089 5.401 12.089 12.044c0 6.642-5.422 12.043-12.089 12.043ZM148.855 29.319c-3.174-1.314-6.301-1.971-6.447-1.995-.025 0-2.418-.511-4.909-1.485-3.834-1.532-4.274-2.725-4.274-2.725 0-1.265 1.612-2.773 3.932-3.65 3.761-1.435 9.696-1.435 13.97 3.334 1.172 1.29 3.175 1.411 4.469.243 1.295-1.168 1.416-3.163.244-4.452-2.808-3.115-6.423-5.158-10.477-5.913-3.492-.657-7.205-.34-10.477.9-4.933 1.898-8.011 5.548-8.011 9.563 0 3.43 2.638 6.253 7.815 8.394 3.175 1.314 6.301 1.97 6.448 1.995.024 0 2.418.51 4.909 1.484 3.834 1.509 4.274 2.725 4.298 2.725 0 1.265-1.612 2.774-3.932 3.65-3.761 1.435-9.696 1.435-13.969-3.334-1.173-1.29-3.175-1.41-4.47-.243-1.294 1.168-1.416 3.163-.244 4.453 2.809 3.114 6.423 5.158 10.477 5.912 1.197.22 2.394.34 3.615.34 2.344 0 4.713-.413 6.862-1.24 4.934-1.898 8.011-5.548 8.011-9.562-.024-3.43-2.662-6.253-7.84-8.394ZM181.825 42.58c-3.615 0-7.328-1.923-7.328-5.11 0-2.871-.048-11.217-.12-18.979h4.516a3.162 3.162 0 1 0 0-6.326h-4.567c-.048-5.109-.072-8.929-.072-9.026C174.229 1.41 172.814 0 171.08 0h-.026a3.177 3.177 0 0 0-3.149 3.187c0 .098.023 3.918.072 8.978h-2.027a3.163 3.163 0 1 0 0 6.326h2.075c.051 7.762.123 16.132.123 18.979 0 3.406 1.611 6.472 4.518 8.588 2.491 1.825 5.74 2.823 9.134 2.823a3.162 3.162 0 0 0 3.175-3.163 3.136 3.136 0 0 0-3.15-3.139ZM67.626 38.832l-.122.097c-2.296 2.36-5.373 3.65-8.67 3.65-.464 0-.928-.024-1.368-.073l.44 3.358-2.663 2.7c1.173.22 2.37.365 3.59.365 4.983 0 9.648-1.946 13.164-5.498l6.643-6.18-4.323-4.623-6.691 6.204Z"/><path fill="#58A1F9" d="M56.49 42.336c-5.544-1.095-9.72-5.986-9.72-11.825 0-2.287.634-4.428 1.758-6.253l-3.37-.633-1.686-3.187a18.166 18.166 0 0 0-3.052 10.097c0 8.516 5.837 15.67 13.725 17.762l2.76-2.798-.415-3.163Z"/><path fill="#58A1F9" d="M49.113 23.406a12.04 12.04 0 0 1 9.745-4.915 12.05 12.05 0 0 1 8.792 3.772l.073.073 2.393 2.214 1.002-3.48 3.175-1.265-2.125-1.97c-3.517-3.65-8.23-5.67-13.31-5.67-6.033 0-11.381 2.896-14.752 7.373l1.686 3.26 3.321.608Z"/><path fill="#58A1F9" d="m79.032 32.847 9.525 8.856.953-3.236 3.419-1.362-9.574-8.881-8.279-7.689-3.175 1.241L70.9 25.28l8.132 7.567ZM94.637 22.384l.147-.146c2.32-2.433 5.422-3.77 8.792-3.77 1.587 0 3.126.316 4.518.875l2.393-2.409-.488-3.6a18.259 18.259 0 0 0-6.448-1.168c-5.08 0-9.793 2.019-13.31 5.668l-5.69 5.28 4.323 4.623 5.763-5.352Z"/><path fill="#58A1F9" d="m111.026 13.747.464 3.528-2.491 2.506c3.932 1.995 6.642 6.058 6.642 10.754 0 2.92-1.05 5.62-2.808 7.689l1.661 3.187 3.394.633c2.565-3.163 4.103-7.153 4.103-11.509 0-7.47-4.518-13.917-10.965-16.788Z"/><path fill="#58A1F9" d="M112.148 39.002a12.052 12.052 0 0 1-8.597 3.577c-3.297 0-6.374-1.29-8.67-3.65l-.049-.048-1.099-1.022-3.42 1.362-.952 3.236 1.026.95c3.493 3.552 8.157 5.498 13.164 5.498a18.434 18.434 0 0 0 13.603-5.985l-3.297-.609-1.709-3.309Z"/></svg>
